;FLAVOR:Marlin
;TIME:1562
;Filament used: 0.905357m
;Layer height: 0.2
;MINX:10.2
;MINY:10.2
;MINZ:0.2
;MAXX:209.8
;MAXY:209.8
;MAXZ:0.2
;Generated with Cura_SteamEngine 4.11.0
M140 S60
M105
M190 S60
M104 S215
M105
M109 S215
M82 ;absolute extrusion mode
; Ender 3 Custom Start G-code
G92 E0 ; Reset Extruder
G28 ; Home all axes
G1 Z2.0 F3000 ; Move Z Axis up little to prevent scratching of Heat Bed
G1 X0.1 Y20 Z0.3 F5000.0 ; Move to start position
G1 X0.1 Y200.0 Z0.3 F1500.0 E15 ; Draw the first line
G1 X0.4 Y200.0 Z0.3 F5000.0 ; Move to side a little
G1 X0.4 Y20 Z0.3 F1500.0 E30 ; Draw the second line
G92 E0 ; Reset Extruder
G1 Z2.0 F3000 ; Move Z Axis up little to prevent scratching of Heat Bed
G1 X5 Y20 Z0.3 F5000.0 ; Move over to prevent blob squish
G92 E0
G92 E0
G1 F1500 E-6.5
;LAYER_COUNT:2
;LAYER:0
M107
;MESH:bed_level_test.stl
G0 F6000 X100.6 Y109.6 Z0.2
;TYPE:WALL-INNER
G1 F1500 E0
G1 F1200 X100.6 Y100.6 E0.29934
G1 X109.6 Y100.6 E0.59868
G1 X109.6 Y80.4 E1.27054
G1 X89.4 Y80.4 E1.94239
G1 X89.4 Y89.4 E2.24173
G1 X70.6 Y89.4 E2.86702
G1 X70.6 Y70.6 E3.49231
G1 X89.4 Y70.6 E4.1176
G1 X89.4 Y79.6 E4.41695
G1 X109.6 Y79.6 E5.0888
G1 X109.6 Y59.4 E5.76066
G1 X100.6 Y59.4 E6.06
G1 X100.6 Y50.4 E6.35934
G1 X59.4 Y50.4 E7.72966
G1 X59.4 Y59.4 E8.029
G1 X40.6 Y59.4 E8.65429
G1 X40.6 Y40.6 E9.27958
G1 X59.4 Y40.6 E9.90487
G1 X59.4 Y49.6 E10.20421
G1 X100.6 Y49.6 E11.57453
G1 X100.6 Y40.6 E11.87387
G1 X109.6 Y40.6 E12.17321
G1 X109.6 Y29.4 E12.54572
G1 X100.6 Y29.4 E12.84506
G1 X100.6 Y20.4 E13.14441
G1 X29.4 Y20.4 E15.51253
G1 X29.4 Y29.4 E15.81187
G1 X20.4 Y29.4 E16.11121
G1 X20.4 Y100.6 E18.47933
G1 X29.4 Y100.6 E18.77867
G1 X29.4 Y109.6 E19.07801
G1 X40.6 Y109.6 E19.45053
G1 X40.6 Y100.6 E19.74987
G1 X59.4 Y100.6 E20.37516
G1 X59.4 Y109.6 E20.6745
G1 X100.6 Y109.6 E22.04482
G0 F6000 X100.2 Y109.2
;TYPE:WALL-OUTER
G1 F1200 X100.2 Y100.2 E22.34416
G1 X109.2 Y100.2 E22.6435
G1 X109.2 Y80.8 E23.28875
G1 X89.8 Y80.8 E23.93399
G1 X89.8 Y89.8 E24.23333
G1 X70.2 Y89.8 E24.88523
G1 X70.2 Y70.2 E25.53713
G1 X89.8 Y70.2 E26.18903
G1 X89.8 Y79.2 E26.48837
G1 X109.2 Y79.2 E27.13362
G1 X109.2 Y59.8 E27.77886
G1 X100.2 Y59.8 E28.07821
G1 X100.2 Y50.8 E28.37755
G1 X59.8 Y50.8 E29.72126
G1 X59.8 Y59.8 E30.0206
G1 X40.2 Y59.8 E30.6725
G1 X40.2 Y40.2 E31.3244
G1 X59.8 Y40.2 E31.97629
G1 X59.8 Y49.2 E32.27564
G1 X100.2 Y49.2 E33.61934
G1 X100.2 Y40.2 E33.91869
G1 X109.2 Y40.2 E34.21803
G1 X109.2 Y29.8 E34.56393
G1 X100.2 Y29.8 E34.86327
G1 X100.2 Y20.8 E35.16261
G1 X29.8 Y20.8 E37.50413
G1 X29.8 Y29.8 E37.80347
G1 X20.8 Y29.8 E38.10281
G1 X20.8 Y100.2 E40.44432
G1 X29.8 Y100.2 E40.74367
G1 X29.8 Y109.2 E41.04301
G1 X40.2 Y109.2 E41.38891
G1 X40.2 Y100.2 E41.68825
G1 X59.8 Y100.2 E42.34015
G1 X59.8 Y109.2 E42.63949
G1 X100.2 Y109.2 E43.9832
G1 F1500 E37.4832
G0 F6000 X100.5 Y109.2
G0 X100.79 Y109.6
G0 X99.347 Y108.347
G0 X120.653 Y108.347
G0 X119.21 Y109.6
G0 X119.4 Y109.6
;TYPE:WALL-INNER
G1 F1500 E43.9832
G1 F1200 X160.6 Y109.6 E45.35352
G1 X160.6 Y100.6 E45.65286
G1 X179.4 Y100.6 E46.27815
G1 X179.4 Y109.6 E46.57749
G1 X190.6 Y109.6 E46.95001
G1 X190.6 Y100.6 E47.24935
G1 X199.6 Y100.6 E47.54869
G1 X199.6 Y29.4 E49.91681
G1 X190.6 Y29.4 E50.21615
G1 X190.6 Y20.4 E50.51549
G1 X119.4 Y20.4 E52.88361
G1 X119.4 Y29.4 E53.18296
G1 X110.4 Y29.4 E53.4823
G1 X110.4 Y40.6 E53.85481
G1 X119.4 Y40.6 E54.15415
G1 X119.4 Y49.6 E54.45349
G1 X160.6 Y49.6 E55.82381
G1 X160.6 Y40.6 E56.12315
G1 X179.4 Y40.6 E56.74844
G1 X179.4 Y59.4 E57.37373
G1 X160.6 Y59.4 E57.99902
G1 X160.6 Y50.4 E58.29836
G1 X119.4 Y50.4 E59.66868
G1 X119.4 Y59.4 E59.96802
G1 X110.4 Y59.4 E60.26736
G1 X110.4 Y79.6 E60.93922
G1 X130.6 Y79.6 E61.61107
G1 X130.6 Y70.6 E61.91042
G1 X149.4 Y70.6 E62.53571
G1 X149.4 Y89.4 E63.161
G1 X130.6 Y89.4 E63.78629
G1 X130.6 Y80.4 E64.08563
G1 X110.4 Y80.4 E64.75748
G1 X110.4 Y100.6 E65.42934
G1 X119.4 Y100.6 E65.72868
G1 X119.4 Y109.6 E66.02802
G0 F6000 X119.8 Y109.2
;TYPE:WALL-OUTER
G1 F1200 X160.2 Y109.2 E67.37173
G1 X160.2 Y100.2 E67.67107
G1 X179.8 Y100.2 E68.32297
G1 X179.8 Y109.2 E68.62231
G1 X190.2 Y109.2 E68.96822
G1 X190.2 Y100.2 E69.26756
G1 X199.2 Y100.2 E69.5669
G1 X199.2 Y29.8 E71.90841
G1 X190.2 Y29.8 E72.20775
G1 X190.2 Y20.8 E72.50709
G1 X119.8 Y20.8 E74.84861
G1 X119.8 Y29.8 E75.14795
G1 X110.8 Y29.8 E75.44729
G1 X110.8 Y40.2 E75.7932
G1 X119.8 Y40.2 E76.09254
G1 X119.8 Y49.2 E76.39188
G1 X160.2 Y49.2 E77.73559
G1 X160.2 Y40.2 E78.03493
G1 X179.8 Y40.2 E78.68683
G1 X179.8 Y59.8 E79.33873
G1 X160.2 Y59.8 E79.99062
G1 X160.2 Y50.8 E80.28997
G1 X119.8 Y50.8 E81.63368
G1 X119.8 Y59.8 E81.93302
G1 X110.8 Y59.8 E82.23236
G1 X110.8 Y79.2 E82.8776
G1 X130.2 Y79.2 E83.52285
G1 X130.2 Y70.2 E83.82219
G1 X149.8 Y70.2 E84.47409
G1 X149.8 Y89.8 E85.12599
G1 X130.2 Y89.8 E85.77789
G1 X130.2 Y80.8 E86.07723
G1 X110.8 Y80.8 E86.72248
G1 X110.8 Y100.2 E87.36772
G1 X119.8 Y100.2 E87.66706
G1 X119.8 Y109.2 E87.96641
G1 F1500 E81.46641
G0 F6000 X119.5 Y109.2
G0 X119.23 Y107.673
G0 X120.665 Y107.673
G0 X117.908 Y120.584
G0 X111.653 Y120.653
G0 X111.653 Y138.347
G0 X114.102 Y138.413
G0 X113.426 Y141.584
G0 X111.653 Y141.653
G0 X111.616 Y150.061
G0 X105.084 Y180.665
G0 X105.084 Y179.23
G0 X109.428 Y179.572
G0 X109.428 Y190.428
G0 X100.782 Y190.782
G0 X100.6 Y199.6
;TYPE:WALL-INNER
G1 F1500 E87.96641
G1 F1200 X100.6 Y190.6 E88.26575
G1 X109.6 Y190.6 E88.56509
G1 X109.6 Y179.4 E88.9376
G1 X100.6 Y179.4 E89.23694
G1 X100.6 Y170.4 E89.53628
G1 X59.4 Y170.4 E90.9066
G1 X59.4 Y179.4 E91.20594
G1 X40.6 Y179.4 E91.83123
G1 X40.6 Y160.6 E92.45652
G1 X59.4 Y160.6 E93.08181
G1 X59.4 Y169.6 E93.38116
G1 X100.6 Y169.6 E94.75147
G1 X100.6 Y160.6 E95.05081
G1 X109.6 Y160.6 E95.35016
G1 X109.6 Y140.4 E96.02201
G1 X89.4 Y140.4 E96.69386
G1 X89.4 Y149.4 E96.99321
G1 X70.6 Y149.4 E97.6185
G1 X70.6 Y130.6 E98.24379
G1 X89.4 Y130.6 E98.86908
G1 X89.4 Y139.6 E99.16842
G1 X109.6 Y139.6 E99.84027
G1 X109.6 Y119.4 E100.51213
G1 X100.6 Y119.4 E100.81147
G1 X100.6 Y110.4 E101.11081
G1 X59.4 Y110.4 E102.48113
G1 X59.4 Y119.4 E102.78047
G1 X40.6 Y119.4 E103.40576
G1 X40.6 Y110.4 E103.7051
G1 X29.4 Y110.4 E104.07761
G1 X29.4 Y119.4 E104.37696
G1 X20.4 Y119.4 E104.6763
G1 X20.4 Y190.6 E107.04442
G1 X29.4 Y190.6 E107.34376
G1 X29.4 Y199.6 E107.6431
G1 X100.6 Y199.6 E110.01122
G0 F6000 X100.2 Y199.2
;TYPE:WALL-OUTER
G1 F1200 X100.2 Y190.2 E110.31056
G1 X109.2 Y190.2 E110.60991
G1 X109.2 Y179.8 E110.95581
G1 X100.2 Y179.8 E111.25515
G1 X100.2 Y170.8 E111.55449
G1 X59.8 Y170.8 E112.8982
G1 X59.8 Y179.8 E113.19754
G1 X40.2 Y179.8 E113.84944
G1 X40.2 Y160.2 E114.50134
G1 X59.8 Y160.2 E115.15324
G1 X59.8 Y169.2 E115.45258
G1 X100.2 Y169.2 E116.79629
G1 X100.2 Y160.2 E117.09563
G1 X109.2 Y160.2 E117.39497
G1 X109.2 Y140.8 E118.04022
G1 X89.8 Y140.8 E118.68547
G1 X89.8 Y149.8 E118.98481
G1 X70.2 Y149.8 E119.63671
G1 X70.2 Y130.2 E120.2886
G1 X89.8 Y130.2 E120.9405
G1 X89.8 Y139.2 E121.23984
G1 X109.2 Y139.2 E121.88509
G1 X109.2 Y119.8 E122.53034
G1 X100.2 Y119.8 E122.82968
G1 X100.2 Y110.8 E123.12902
G1 X59.8 Y110.8 E124.47273
G1 X59.8 Y119.8 E124.77207
G1 X40.2 Y119.8 E125.42397
G1 X40.2 Y110.8 E125.72331
G1 X29.8 Y110.8 E126.06922
G1 X29.8 Y119.8 E126.36856
G1 X20.8 Y119.8 E126.6679
G1 X20.8 Y190.2 E129.00941
G1 X29.8 Y190.2 E129.30875
G1 X29.8 Y199.2 E129.60809
G1 X100.2 Y199.2 E131.94961
G1 F1500 E125.44961
G0 F6000 X100.5 Y199.2
G0 X100.79 Y199.6
G0 X99.347 Y198.347
G0 X120.653 Y198.347
G0 X119.21 Y199.6
G0 X119.4 Y199.6
;TYPE:WALL-INNER
G1 F1500 E131.94961
G1 F1200 X190.6 Y199.6 E134.31773
G1 X190.6 Y190.6 E134.61707
G1 X199.6 Y190.6 E134.91641
G1 X199.6 Y119.4 E137.28453
G1 X190.6 Y119.4 E137.58387
G1 X190.6 Y110.4 E137.88322
G1 X179.4 Y110.4 E138.25573
G1 X179.4 Y119.4 E138.55507
G1 X160.6 Y119.4 E139.18036
G1 X160.6 Y110.4 E139.4797
G1 X119.4 Y110.4 E140.85002
G1 X119.4 Y119.4 E141.14936
G1 X110.4 Y119.4 E141.4487
G1 X110.4 Y139.6 E142.12056
G1 X130.6 Y139.6 E142.79241
G1 X130.6 Y130.6 E143.09175
G1 X149.4 Y130.6 E143.71704
G1 X149.4 Y149.4 E144.34233
G1 X130.6 Y149.4 E144.96762
G1 X130.6 Y140.4 E145.26697
G1 X110.4 Y140.4 E145.93882
G1 X110.4 Y160.6 E146.61068
G1 X119.4 Y160.6 E146.91002
G1 X119.4 Y169.6 E147.20936
G1 X160.6 Y169.6 E148.57968
G1 X160.6 Y160.6 E148.87902
G1 X179.4 Y160.6 E149.50431
G1 X179.4 Y179.4 E150.1296
G1 X160.6 Y179.4 E150.75489
G1 X160.6 Y170.4 E151.05423
G1 X119.4 Y170.4 E152.42455
G1 X119.4 Y179.4 E152.72389
G1 X110.4 Y179.4 E153.02323
G1 X110.4 Y190.6 E153.39574
G1 X119.4 Y190.6 E153.69508
G1 X119.4 Y199.6 E153.99443
G0 F6000 X119.8 Y199.2
;TYPE:WALL-OUTER
G1 F1200 X190.2 Y199.2 E156.33594
G1 X190.2 Y190.2 E156.63528
G1 X199.2 Y190.2 E156.93462
G1 X199.2 Y119.8 E159.27613
G1 X190.2 Y119.8 E159.57548
G1 X190.2 Y110.8 E159.87482
G1 X179.8 Y110.8 E160.22072
G1 X179.8 Y119.8 E160.52006
G1 X160.2 Y119.8 E161.17196
G1 X160.2 Y110.8 E161.4713
G1 X119.8 Y110.8 E162.81501
G1 X119.8 Y119.8 E163.11435
G1 X110.8 Y119.8 E163.4137
G1 X110.8 Y139.2 E164.05894
G1 X130.2 Y139.2 E164.70419
G1 X130.2 Y130.2 E165.00353
G1 X149.8 Y130.2 E165.65543
G1 X149.8 Y149.8 E166.30733
G1 X130.2 Y149.8 E166.95923
G1 X130.2 Y140.8 E167.25857
G1 X110.8 Y140.8 E167.90381
G1 X110.8 Y160.2 E168.54906
G1 X119.8 Y160.2 E168.8484
G1 X119.8 Y169.2 E169.14774
G1 X160.2 Y169.2 E170.49145
G1 X160.2 Y160.2 E170.79079
G1 X179.8 Y160.2 E171.44269
G1 X179.8 Y179.8 E172.09459
G1 X160.2 Y179.8 E172.74649
G1 X160.2 Y170.8 E173.04583
G1 X119.8 Y170.8 E174.38954
G1 X119.8 Y179.8 E174.68888
G1 X110.8 Y179.8 E174.98822
G1 X110.8 Y190.2 E175.33413
G1 X119.8 Y190.2 E175.63347
G1 X119.8 Y199.2 E175.93281
G1 F1500 E169.43281
G0 F6000 X119.5 Y199.2
G0 X119.204 Y199.796
G0 X119.19 Y200.19
G0 X100.6 Y209.4
;TYPE:WALL-INNER
G1 F1500 E175.93281
G1 F1200 X100.6 Y200.4 E176.23215
G1 X29.4 Y200.4 E178.60027
G1 X29.4 Y209.4 E178.89961
G1 X10.6 Y209.4 E179.5249
G1 X10.6 Y190.6 E180.1502
G1 X19.6 Y190.6 E180.44954
G1 X19.6 Y119.4 E182.81766
G1 X10.6 Y119.4 E183.117
G1 X10.6 Y100.6 E183.74229
G1 X19.6 Y100.6 E184.04163
G1 X19.6 Y29.4 E186.40975
G1 X10.6 Y29.4 E186.70909
G1 X10.6 Y10.6 E187.33438
G1 X29.4 Y10.6 E187.95968
G1 X29.4 Y19.6 E188.25902
G1 X100.6 Y19.6 E190.62714
G1 X100.6 Y10.6 E190.92648
G1 X119.4 Y10.6 E191.55177
G1 X119.4 Y19.6 E191.85111
G1 X190.6 Y19.6 E194.21923
G1 X190.6 Y10.6 E194.51857
G1 X209.4 Y10.6 E195.14386
G1 X209.4 Y29.4 E195.76915
G1 X200.4 Y29.4 E196.0685
G1 X200.4 Y100.6 E198.43662
G1 X209.4 Y100.6 E198.73596
G1 X209.4 Y119.4 E199.36125
G1 X200.4 Y119.4 E199.66059
G1 X200.4 Y190.6 E202.02871
G1 X209.4 Y190.6 E202.32805
G1 X209.4 Y209.4 E202.95334
G1 X190.6 Y209.4 E203.57863
G1 X190.6 Y200.4 E203.87798
G1 X119.4 Y200.4 E206.2461
G1 X119.4 Y209.4 E206.54544
G1 X100.6 Y209.4 E207.17073
G0 F6000 X100.2 Y209.8
;TYPE:WALL-OUTER
G1 F1200 X100.2 Y200.8 E207.47007
G1 X29.8 Y200.8 E209.81158
G1 X29.8 Y209.8 E210.11093
G1 X10.2 Y209.8 E210.76282
G1 X10.2 Y190.2 E211.41472
G1 X19.2 Y190.2 E211.71406
G1 X19.2 Y119.8 E214.05558
G1 X10.2 Y119.8 E214.35492
G1 X10.2 Y100.2 E215.00682
G1 X19.2 Y100.2 E215.30616
G1 X19.2 Y29.8 E217.64767
G1 X10.2 Y29.8 E217.94701
G1 X10.2 Y10.2 E218.59891
G1 X29.8 Y10.2 E219.25081
G1 X29.8 Y19.2 E219.55015
G1 X100.2 Y19.2 E221.89166
G1 X100.2 Y10.2 E222.19101
G1 X119.8 Y10.2 E222.8429
G1 X119.8 Y19.2 E223.14225
G1 X190.2 Y19.2 E225.48376
G1 X190.2 Y10.2 E225.7831
G1 X209.8 Y10.2 E226.435
G1 X209.8 Y29.8 E227.0869
G1 X200.8 Y29.8 E227.38624
G1 X200.8 Y100.2 E229.72775
G1 X209.8 Y100.2 E230.02709
G1 X209.8 Y119.8 E230.67899
G1 X200.8 Y119.8 E230.97833
G1 X200.8 Y190.2 E233.31985
G1 X209.8 Y190.2 E233.61919
G1 X209.8 Y209.8 E234.27109
G1 X190.2 Y209.8 E234.92299
G1 X190.2 Y200.8 E235.22233
G1 X119.8 Y200.8 E237.56384
G1 X119.8 Y209.8 E237.86318
G1 X100.2 Y209.8 E238.51508
G0 F6000 X100.47 Y209.53
G0 X100.71 Y209.01
G0 X100.99 Y209.01
;TYPE:SKIN
G1 F1200 X100.99 Y200.01 E238.81442
G1 X29.01 Y200.01 E241.20849
G1 X29.01 Y209.01 E241.50783
G1 X10.99 Y209.01 E242.10718
G1 X10.99 Y190.99 E242.70652
G1 X19.99 Y190.99 E243.00586
G1 X19.99 Y119.01 E245.39993
G1 X10.99 Y119.01 E245.69927
G1 X10.99 Y100.99 E246.29862
G1 X19.99 Y100.99 E246.59796
G1 X19.99 Y29.01 E248.99202
G1 X10.99 Y29.01 E249.29136
G1 X10.99 Y10.99 E249.89071
G1 X29.01 Y10.99 E250.49006
G1 X29.01 Y19.99 E250.7894
G1 X100.99 Y19.99 E253.18347
G1 X100.99 Y10.99 E253.48281
G1 X119.01 Y10.99 E254.08215
G1 X119.01 Y19.99 E254.3815
G1 X190.99 Y19.99 E256.77556
G1 X190.99 Y10.99 E257.0749
G1 X209.01 Y10.99 E257.67425
G1 X209.01 Y29.01 E258.2736
G1 X200.01 Y29.01 E258.57294
G1 X200.01 Y100.99 E260.967
G1 X209.01 Y100.99 E261.26634
G1 X209.01 Y119.01 E261.86569
G1 X200.01 Y119.01 E262.16503
G1 X200.01 Y190.99 E264.5591
G1 X209.01 Y190.99 E264.85844
G1 X209.01 Y209.01 E265.45779
G1 X190.99 Y209.01 E266.05713
G1 X190.99 Y200.01 E266.35647
G1 X119.01 Y200.01 E268.75054
G1 X119.01 Y209.01 E269.04988
G1 X100.99 Y209.01 E269.64923
G1 F1500 E263.14923
G0 F6000 X100.71 Y209.01
G0 X100.414 Y200.586
G0 X100.414 Y199.79
G0 X100.71 Y199.74
G1 F1500 E269.64923
G0 F6000 X100.99 Y199.99
G1 F1200 X100.99 Y190.99 E269.94857
G1 X109.99 Y190.99 E270.24791
G1 X109.99 Y179.01 E270.64637
G1 X100.99 Y179.01 E270.94571
G1 X100.99 Y170.01 E271.24505
G1 X59.01 Y170.01 E272.64131
G1 X59.01 Y179.01 E272.94065
G1 X40.99 Y179.01 E273.54
G1 X40.99 Y160.99 E274.13935
G1 X59.01 Y160.99 E274.73869
G1 X59.01 Y169.99 E275.03803
G1 X100.99 Y169.99 E276.4343
G1 X100.99 Y160.99 E276.73364
G1 X109.99 Y160.99 E277.03298
G1 X109.99 Y140.01 E277.73078
G1 X89.01 Y140.01 E278.42857
G1 X89.01 Y149.01 E278.72791
G1 X70.99 Y149.01 E279.32726
G1 X70.99 Y130.99 E279.92661
G1 X89.01 Y130.99 E280.52596
G1 X89.01 Y139.99 E280.8253
G1 X109.99 Y139.99 E281.5231
G1 X109.99 Y119.01 E282.22089
G1 X100.99 Y119.01 E282.52023
G1 X100.99 Y110.01 E282.81958
G1 X59.01 Y110.01 E284.21584
G1 X59.01 Y119.01 E284.51518
G1 X40.99 Y119.01 E285.11453
G1 X40.99 Y110.01 E285.41387
G1 X29.01 Y110.01 E285.81232
G1 X29.01 Y119.01 E286.11166
G1 X20.01 Y119.01 E286.41101
G1 X20.01 Y190.99 E288.80507
G1 X29.01 Y190.99 E289.10441
G1 X29.01 Y199.99 E289.40375
G1 X100.99 Y199.99 E291.79782
G1 F1500 E285.29782
G0 F6000 X100.71 Y199.74
G0 X100.782 Y190.782
G0 X109.796 Y190.796
G0 X110.21 Y190.796
G1 F1500 E291.79782
G0 F6000 X110.01 Y190.99
G1 F1200 X119.01 Y190.99 E292.09716
G1 X119.01 Y199.99 E292.3965
G1 X190.99 Y199.99 E294.79056
G1 X190.99 Y190.99 E295.0899
G1 X199.99 Y190.99 E295.38925
G1 X199.99 Y119.01 E297.78331
G1 X190.99 Y119.01 E298.08265
G1 X190.99 Y110.01 E298.38199
G1 X179.01 Y110.01 E298.78045
G1 X179.01 Y119.01 E299.07979
G1 X160.99 Y119.01 E299.67914
G1 X160.99 Y110.01 E299.97848
G1 X119.01 Y110.01 E301.37474
G1 X119.01 Y119.01 E301.67408
G1 X110.01 Y119.01 E301.97342
G1 X110.01 Y139.99 E302.67122
G1 X130.99 Y139.99 E303.36902
G1 X130.99 Y130.99 E303.66836
G1 X149.01 Y130.99 E304.26771
G1 X149.01 Y149.01 E304.86705
G1 X130.99 Y149.01 E305.4664
G1 X130.99 Y140.01 E305.76574
G1 X110.01 Y140.01 E306.46354
G1 X110.01 Y160.99 E307.16134
G1 X119.01 Y160.99 E307.46068
G1 X119.01 Y169.99 E307.76002
G1 X160.99 Y169.99 E309.15628
G1 X160.99 Y160.99 E309.45562
G1 X179.01 Y160.99 E310.05497
G1 X179.01 Y179.01 E310.65432
G1 X160.99 Y179.01 E311.25367
G1 X160.99 Y170.01 E311.55301
G1 X119.01 Y170.01 E312.94927
G1 X119.01 Y179.01 E313.24861
G1 X110.01 Y179.01 E313.54795
G1 X110.01 Y190.99 E313.94641
G1 F1500 E307.44641
G0 F6000 X110.29 Y190.74
G0 X110.572 Y179.572
G0 X119.218 Y179.218
G0 X119.218 Y170.218
G0 X160.782 Y170.218
G0 X160.782 Y179.218
G0 X179.218 Y179.218
G0 X179.218 Y160.782
